X: 36170
T: Scotsman Over The Border, The
R: jig
M: 6/8
K: Dmajor
D3 FDF|AFA d2c|~B3 BAB|def edB|
ADD FDF|AFA d2c|~B3 AFA|dAF E3:|
|:dfa afa|bge edB|dfa afa|bge e2B|
dfa afa|bge edB|d2B AFA|dAF E3:|

